X:1
T:He’s the One
T:He’s the One
T:James Bruce Mackay
T:James Bruce Mackay, 1899
T:Public Domain Courtesy of the Cyber Hymnal™
T:Public Domain Courtesy of the Cyber Hymnal™
C:James Bruce Mackay
Z:Public Domain
Z:Courtesy of the Cyber Hymnal™
%%score ( 1 2 ) 3
L:1/8
Q:1/4=80
M:4/4
K:Db
V:1 treble 
V:2 treble 
V:3 bass 
V:1
 [DF]>[EG] | [FA]<[FA] [FA][GB] [FA]<[DF] [DF]>[FA] | [Fd]>[Fe] [Gd][GB] [FA]2 [DF]>[EG] | %3
w: 1.~Is there|an- y- one can help us, One who|un- der- stands our hearts, When the|
w: 2.~Is there|an- y- one can help us When the|load is hard to bear, And we|
w: 3.~Is there|an- y- one can help us Who can|give a sin- ner peace, When his|
w: 4.~Is there|an- y- one can help us, When the|end is draw- ing near, Who will|
 [Fd]<[Gd] [GB]/[FA]<[DF][DF]D x3/2 | [CE]6 [DF]>[EG] | [FA]>[FA] [FA][GB] [FA]<[DF] [DF]>[FA] | %6
w: thorns of life have pierced them till|they bleed? One|who sym- pa- thiz- es with us, Who|
w: faint and fall be- neath it in|a- larm? Who|in ten- der- ness will lift us, And|
w: heart is bur- dened down with pain|and woe? Who|can speak the word of par- don That|
w: go thro’ death’s dark wa- ters by|our side? Who|will light the way be- fore us, And|
 [Fd]>[Fe] [Gd]>[GB] [FA]2 D>[DE] | [DF]<[FA] [FA]>[GB] [FA]<[DF] [CE]>[CF] | D6 ||"^Refrain" A>F | %10
w: in won- drous love im- parts Just|the ve- ry, ve- ry bless- ing that|we|need? *|
w: the hea- vy bur- den share, And|sup- port us with an ev- er- last-|ing|arm? Yes,|
w: af- fords a sweet re- lease, And|whose blood can wash and make as white|as|snow? *|
w: dis- pel all doubt and fear, And|will bear our spir- its safe- ly o’er|the|tide? *|
 (z2 d>)e x6 | (z2 G3) [GB] x2 | [FA]<[FA] [FA][GB] [FA]<[DF] [DF]>D | [CE]6 [DF]>[EG] | %14
w: ||||
w: * there’s|* One,|* on- ly One, The bless- èd, bless-|èd Je- sus,|
w: ||||
w: ||||
 [FA][FA] [FA]>[GB] [FA]3 [FA] | [GB][Gd] [Gd]>[GB] [FA]2 D>[DE] | %16
w: ||
w: He’s the One; When af- flict-|ions press the soul, When waves of|
w: ||
w: ||
 [DF][FA][Fd][GB] [FA]<[DF] [CE]>[CF] | D6 |] %18
w: ||
w: trou- ble roll, And you need a friend|to|
w: ||
w: ||
V:2
 x2 | x8 | x8 | x11/2 D x3/2 | x8 | x8 | x6 D3/2 x/ | x8 | D6 || x2 | (A6 F>F F2) | d6 G>G | %12
 x15/2 D/ | x8 | x8 | x6 D3/2 x/ | x8 | D6 |] %18
V:3
 [D,A,]>[D,A,] | [D,D]<[D,D] [D,D][D,D] [D,D]<[D,A,] [D,A,]>[D,D] | %2
w: ~ ~|~ ~ ~ ~ ~ ~ ~ ~|
 [D,A,]>[D,A,] [G,B,][G,D] [D,D]2 [D,A,]>[D,A,] | %3
w: ~ ~ ~ ~ ~ ~ ~|
 [D,D]>[D,A,] [G,B,]>[G,D] [D,D]<[D,A,] [B,,=G,][B,,G,] | [A,,G,]6 [D,F,]>[D,A,] | %5
w: ~ ~ ~ ~ ~ ~ ~ ~|~ ~ ~|
 [D,D]>[D,D] [D,D][D,D] [D,D]<[D,A,] [D,A,]>[D,D] | %6
w: ~ ~ ~ ~ ~ ~ ~ ~|
 [D,A,]>[D,A,] [G,B,]>[G,D] [D,D]2 [D,F,]>[E,G,] | %7
w: ~ ~ ~ ~ ~ ~ ~|
 [D,A,]<[D,D] [D,D]>[D,D] [D,D]<[D,A,] [A,,G,]>[A,,A,] | [D,F,]6 || z2 | %10
w: ~ ~ ~ ~ ~ ~ ~ ~|~||
 z2 [D,D]>[D,D] [D,D]2 z2 x2 | z2 [G,B,]>[G,B,] [G,B,]3 [G,D] | %12
w: Yes, there’s One,|on- ly One. *|
 [D,D]<[D,D] [D,D][D,D] [D,D]<[D,A,] [B,,=G,]>[B,,G,] | [A,,G,]6 [D,F,]>[D,A,] | %14
w: ||
 [D,D][D,D] [D,D]>[D,D] [D,D]3 [D,D] | [G,D][G,B,] [G,B,]>[G,D] [D,D]2 [D,F,]>[D,G,] | %16
w: ||
 [D,A,][D,D][D,A,][D,D] [D,D]<[D,A,] [A,,G,]>[A,,A,] | [D,F,]6 |] %18
w: ||

